Papirus/22x22/panel/screencloud-idle.svg

<?xml version="1.0" encoding="UTF-8" standalone="no"?>
<svg xmlns:dc="http://purl.org/dc/elements/1.1/" xmlns:cc="http://creativecommons.org/ns#" xmlns:rdf="http://www.w3.org/1999/02/22-rdf-syntax-ns#" xmlns:svg="http://www.w3.org/2000/svg" xmlns="http://www.w3.org/2000/svg" version="1.1" id="svg2" viewBox="0 0 22 22">
    <metadata id="metadata18">
        <rdf:RDF>
            <cc:Work rdf:about="">
                <dc:format>
                    image/svg+xml
                </dc:format>
                <dc:type rdf:resource="http://purl.org/dc/dcmitype/StillImage"/>
                <dc:title/>
            </cc:Work>
        </rdf:RDF>
    </metadata>
    <path id="path4171" d="M 17.996094 5 L 17.902344 5.2402344 L 17.650391 5.3007812 L 17.851562 5.4648438 L 17.830078 5.7226562 L 18.048828 5.5820312 L 18.287109 5.6835938 L 18.220703 5.4316406 L 18.390625 5.2363281 L 18.130859 5.2207031 L 17.996094 5 z M 17.322266 5.1484375 L 16.951172 5.5605469 L 16.404297 5.4882812 L 16.681641 5.96875 L 16.443359 6.46875 L 16.984375 6.3515625 L 17.386719 6.7324219 L 17.443359 6.1816406 L 17.929688 5.9179688 L 17.423828 5.6933594 L 17.322266 5.1484375 z M 8.0917969 5.59375 C 5.1337114 5.5948113 2.75 7.9781591 2.75 10.9375 C 2.75 11.0595 2.742 11.1925 2.75 11.3125 C 1.71 11.8145 1 12.833 1 14 C 1 15.671 2.447 17 4.25 17 L 17.75 17 C 19.553 17 21 15.671 21 14 C 21 12.759 20.2145 11.68175 19.0625 11.21875 C 19.0905 11.03075 19.09375 10.85225 19.09375 10.65625 C 19.09375 8.53525 17.369047 6.8125 15.248047 6.8125 C 14.183047 6.8125 13.225297 7.2375 12.529297 7.9375 C 11.565641 6.520006 9.9369392 5.5944106 8.09375 5.59375 L 8.0917969 5.59375 z M 18.09375 6.09375 L 18.027344 6.4824219 L 17.669922 6.6503906 L 18.021484 6.8320312 L 18.070312 7.2246094 L 18.351562 6.9472656 L 18.740234 7.0234375 L 18.5625 6.6699219 L 18.753906 6.3222656 L 18.363281 6.3828125 L 18.09375 6.09375 z M 5.984375 7 C 6.5373836 7 7 7.448 7 8 C 7 8.552 6.5373836 9 5.984375 9 C 5.4313664 9 5 8.552 5 8 C 5 7.448 5.4323216 7 5.984375 7 z M 11 8 A 4 4 0 0 1 15 12 A 4 4 0 0 1 11 16 A 4 4 0 0 1 7 12 A 4 4 0 0 1 11 8 z M 11 10 A 2 2 0 0 0 9 12 A 2 2 0 0 0 11 14 A 2 2 0 0 0 13 12 A 2 2 0 0 0 11 10 z " style="fill:#ffffff;fill-opacity:1;opacity:1"/>
</svg>

<?xml version="1.0" encoding="UTF-8" standalone="no"?>
<svg id="svg2" xmlns:rdf="http://www.w3.org/1999/02/22-rdf-syntax-ns#" xmlns="http://www.w3.org/2000/svg" viewBox="0 0 22 22" version="1.1" xmlns:cc="http://creativecommons.org/ns#" xmlns:dc="http://purl.org/dc/elements/1.1/">
 <metadata id="metadata18">
  <rdf:RDF>
   <cc:Work rdf:about="">
    <dc:format>image/svg+xml</dc:format>
    <dc:type rdf:resource="http://purl.org/dc/dcmitype/StillImage"/>
    <dc:title/>
   </cc:Work>
  </rdf:RDF>
 </metadata>
 <path id="path4171" d="m17.996 5l-0.094 0.2402-0.252 0.0606 0.202 0.164-0.022 0.2579 0.219-0.1407 0.238 0.1016-0.066-0.252 0.17-0.1953-0.26-0.0156-0.135-0.2207zm-0.674 0.1484l-0.371 0.4121-0.547-0.0722 0.278 0.4805-0.239 0.5 0.541-0.1172 0.403 0.3808 0.056-0.5508 0.487-0.2636-0.506-0.2246-0.102-0.545zm-9.2302 0.4454c-2.9581 0.001-5.3418 2.3844-5.3418 5.3442 0 0.122-0.008 0.254 0 0.374-1.04 0.502-1.75 1.521-1.75 2.688 0 1.671 1.447 3 3.25 3h13.5c1.803 0 3.25-1.329 3.25-3 0-1.241-0.786-2.318-1.938-2.781 0.028-0.188 0.032-0.367 0.032-0.563 0-2.1208-1.725-3.8435-3.846-3.8435-1.065 0-2.023 0.425-2.719 1.125-0.963-1.4175-2.5921-2.3431-4.4352-2.3437h-0.002zm10.002 0.5l-0.067 0.3886-0.357 0.168 0.351 0.1816 0.049 0.3926 0.282-0.2773 0.388 0.0761-0.178-0.3535 0.192-0.3476-0.391 0.0605-0.269-0.289zm-12.11 0.9062c0.553 0 1.0156 0.448 1.0156 1s-0.4626 1-1.0156 1-0.9844-0.448-0.9844-1 0.4323-1 0.9844-1zm5.0156 1a4 4 0 0 1 4 4 4 4 0 0 1 -4 4 4 4 0 0 1 -4 -4 4 4 0 0 1 4 -4zm0 2a2 2 0 0 0 -2 2 2 2 0 0 0 2 2 2 2 0 0 0 2 -2 2 2 0 0 0 -2 -2z" fill="#fff"/>
</svg>
